src/icons/svg/eyeem-o.svg

<svg width="1536" height="1536" xmlns="http://www.w3.org/2000/svg">
    <path d="M 314.17383 0.041015625 C 140.72383 0.041015625 0 140.76289 0 314.21289 L 0 1221.8262 C 0 1395.2763 140.72383 1536 314.17383 1536 L 1221.7871 1536 C 1395.2371 1536 1535.959 1395.2763 1535.959 1221.8262 L 1535.959 314.21289 C 1535.959 140.76289 1395.2371 0.041015625 1221.7871 0.041015625 L 314.17383 0.041015625 z M 314.17383 139.67383 L 1221.7871 139.67383 C 1317.7846 139.67383 1396.3262 218.21541 1396.3262 314.21289 L 1396.3262 1221.8262 C 1396.3262 1317.8236 1317.7846 1396.3672 1221.7871 1396.3672 L 314.17383 1396.3672 C 218.17634 1396.3672 139.63281 1317.8236 139.63281 1221.8262 L 139.63281 314.21289 C 139.63281 218.21541 218.17634 139.67383 314.17383 139.67383 z M 448 256 L 448 1280 L 1088 1280 L 1088 1088 L 640 1088 L 640 832 L 1088 832 L 1088 640 L 640 640 L 640 448 L 1088 448 L 1088 256 L 448 256 z"/>
</svg>

<svg xmlns="http://www.w3.org/2000/svg" width="1536" height="1536">
    <path d="M314.174.041C140.724.041 0 140.763 0 314.213v907.613C0 1395.276 140.724 1536 314.174 1536h907.613c173.45 0 314.172-140.724 314.172-314.174V314.213c0-173.45-140.722-314.172-314.172-314.172H314.174zm0 139.633h907.613c95.998 0 174.54 78.541 174.54 174.539v907.613c0 95.998-78.542 174.541-174.54 174.541H314.174c-95.998 0-174.541-78.543-174.541-174.54V314.212c0-95.998 78.543-174.54 174.54-174.54zM448 256v1024h640v-192H640V832h448V640H640V448h448V256H448z"/>
</svg>
